assets/img/space__heroExtras3.svg

<svg xmlns="http://www.w3.org/2000/svg" viewBox="0 0 102 102" enable-background="new 0 0 102 102"><style type="text/css">.st0{fill:#BABABA;}</style><path class="st0" d="M100.5 35.9c-13.2-13.2-30.7-20.4-49.4-20.4s-36.2 7.2-49.4 20.4c-.7.7-.7 1.9 0 2.6.7.7 1.9.7 2.6 0 12.5-12.5 29.1-19.4 46.8-19.4 17.7 0 34.3 6.9 46.8 19.4.4.4.8.5 1.3.5s.9-.2 1.3-.5c.7-.7.7-1.9 0-2.6zm0 0M12.4 46.6c-.7.7-.7 1.9 0 2.6.4.4.8.5 1.3.5s.9-.2 1.3-.5c19.9-19.9 52.3-19.9 72.2 0 .7.7 1.9.7 2.6 0 .7-.7.7-1.9 0-2.6-21.3-21.3-56-21.3-77.4 0zm0 0M51.1 45.7c-10.6 0-20.5 4.1-28 11.6-.7.7-.7 1.9 0 2.6.7.7 1.9.7 2.6 0 6.8-6.8 15.8-10.5 25.4-10.5 9.6 0 18.6 3.7 25.4 10.5.4.4.8.5 1.3.5s.9-.2 1.3-.5c.7-.7.7-1.9 0-2.6-7.5-7.5-17.4-11.6-28-11.6zm0 0M51.1 62.8c-6.6 0-11.9 5.3-11.9 11.9 0 6.6 5.3 11.9 11.9 11.9 6.6 0 11.9-5.3 11.9-11.9 0-6.6-5.3-11.9-11.9-11.9zm0 20.2c-4.6 0-8.3-3.7-8.3-8.3 0-4.6 3.7-8.3 8.3-8.3 4.6 0 8.3 3.7 8.3 8.3 0 4.6-3.7 8.3-8.3 8.3zm0 0"/></svg>

<?xml version="1.0" encoding="utf-8"?>
<!-- Generator: Adobe Illustrator 19.2.0, SVG Export Plug-In . SVG Version: 6.00 Build 0)  -->
<svg version="1.1" id="Layer_1" xmlns="http://www.w3.org/2000/svg" xmlns:xlink="http://www.w3.org/1999/xlink" x="0px" y="0px"
	 viewBox="0 0 102 102" style="enable-background:new 0 0 102 102;" xml:space="preserve">
<style type="text/css">
	.st0{fill:#BABABA;}
</style>
<g>
	<path class="st0" d="M100.5,35.9C87.3,22.7,69.8,15.5,51.1,15.5c-18.7,0-36.2,7.2-49.4,20.4c-0.7,0.7-0.7,1.9,0,2.6
		c0.7,0.7,1.9,0.7,2.6,0C16.8,26,33.4,19.1,51.1,19.1c17.7,0,34.3,6.9,46.8,19.4c0.4,0.4,0.8,0.5,1.3,0.5c0.5,0,0.9-0.2,1.3-0.5
		C101.2,37.8,101.2,36.6,100.5,35.9L100.5,35.9z M100.5,35.9"/>
	<path class="st0" d="M12.4,46.6c-0.7,0.7-0.7,1.9,0,2.6c0.4,0.4,0.8,0.5,1.3,0.5c0.5,0,0.9-0.2,1.3-0.5c19.9-19.9,52.3-19.9,72.2,0
		c0.7,0.7,1.9,0.7,2.6,0c0.7-0.7,0.7-1.9,0-2.6C68.5,25.3,33.8,25.3,12.4,46.6L12.4,46.6z M12.4,46.6"/>
	<path class="st0" d="M51.1,45.7c-10.6,0-20.5,4.1-28,11.6c-0.7,0.7-0.7,1.9,0,2.6c0.7,0.7,1.9,0.7,2.6,0
		c6.8-6.8,15.8-10.5,25.4-10.5c9.6,0,18.6,3.7,25.4,10.5c0.4,0.4,0.8,0.5,1.3,0.5c0.5,0,0.9-0.2,1.3-0.5c0.7-0.7,0.7-1.9,0-2.6
		C71.6,49.8,61.7,45.7,51.1,45.7L51.1,45.7z M51.1,45.7"/>
	<path class="st0" d="M51.1,62.8c-6.6,0-11.9,5.3-11.9,11.9c0,6.6,5.3,11.9,11.9,11.9c6.6,0,11.9-5.3,11.9-11.9
		C63,68.1,57.7,62.8,51.1,62.8L51.1,62.8z M51.1,83c-4.6,0-8.3-3.7-8.3-8.3c0-4.6,3.7-8.3,8.3-8.3c4.6,0,8.3,3.7,8.3,8.3
		C59.4,79.3,55.7,83,51.1,83L51.1,83z M51.1,83"/>
</g>
</svg>
